images/language-sampleframe.svg

<?xml version="1.0" encoding="UTF-8" standalone="no"?>
<svg
   xmlns:dc="http://purl.org/dc/elements/1.1/"
   xmlns:cc="http://creativecommons.org/ns#"
   xmlns:rdf="http://www.w3.org/1999/02/22-rdf-syntax-ns#"
   xmlns:svg="http://www.w3.org/2000/svg"
   xmlns="http://www.w3.org/2000/svg"
   xmlns:sodipodi="http://sodipodi.sourceforge.net/DTD/sodipodi-0.dtd"
   xmlns:inkscape="http://www.inkscape.org/namespaces/inkscape"
   width="481.00021"
   height="209.89984"
   id="SvgGdi_output"
   version="1.1"
   sodipodi:docname="sampleframe.svg"
   inkscape:version="0.92.3 (2405546, 2018-03-11)">
  <metadata
     id="metadata53">
    <rdf:RDF>
      <cc:Work
         rdf:about="">
        <dc:format>image/svg+xml</dc:format>
        <dc:type
           rdf:resource="http://purl.org/dc/dcmitype/StillImage" />
        <dc:title></dc:title>
      </cc:Work>
    </rdf:RDF>
  </metadata>
  <sodipodi:namedview
     pagecolor="#ffffff"
     bordercolor="#666666"
     borderopacity="1"
     objecttolerance="10"
     gridtolerance="10"
     guidetolerance="10"
     inkscape:pageopacity="0"
     inkscape:pageshadow="2"
     inkscape:window-width="1920"
     inkscape:window-height="1001"
     id="namedview51"
     showgrid="false"
     units="px"
     fit-margin-top="0"
     fit-margin-left="0"
     fit-margin-right="0"
     fit-margin-bottom="0"
     inkscape:zoom="0.89608386"
     inkscape:cx="189.1564"
     inkscape:cy="82.544445"
     inkscape:window-x="-9"
     inkscape:window-y="-9"
     inkscape:window-maximized="1"
     inkscape:current-layer="SvgGdi_output" />
  <g
     id="root_group"
     style="shape-rendering:auto"
     transform="scale(1.2714352)">
    <line
       x1="247.5"
       x2="300"
       y2="23.75"
       id="190"
       style="opacity:1;fill:none;stroke:#a9a9a9;stroke-width:1.25;stroke-linecap:butt;stroke-linejoin:miter;stroke-miterlimit:9"
       y1="23.75" />
    <line
       x1="147.5"
       x2="200"
       y2="23.75"
       id="191"
       style="opacity:1;fill:none;stroke:#a9a9a9;stroke-width:1.25;stroke-linecap:butt;stroke-linejoin:miter;stroke-miterlimit:9"
       y1="23.75" />
    <line
       x1="147.5"
       x2="200"
       y2="23.75"
       id="192"
       style="opacity:1;fill:none;stroke:#a9a9a9;stroke-width:1.25;stroke-linecap:butt;stroke-linejoin:miter;stroke-miterlimit:9"
       y1="123.75" />
    <line
       x1="47.5"
       x2="100"
       y2="23.75"
       id="193"
       style="opacity:1;fill:none;stroke:#a9a9a9;stroke-width:1.25;stroke-linecap:butt;stroke-linejoin:miter;stroke-miterlimit:9"
       y1="23.75" />
    <path
       inkscape:connector-curvature="0"
       style="opacity:1;fill:none;stroke:#a9a9a9;stroke-width:2;stroke-linecap:butt;stroke-linejoin:miter;stroke-miterlimit:9"
       id="194"
       transform="matrix(1.25,0,0,1.25,305,5)"
       d="M 10.158,33.2 C 3.4054,31.7591 -1.861,26.4692 -3.271,19.71" />
    <circle
       r="15"
       id="195"
       cx="15"
       cy="15"
       transform="matrix(1.25,0,0,1.25,305,5)"
       style="opacity:1;fill:#9b5bb3;stroke:none" />
    <path
       inkscape:connector-curvature="0"
       style="opacity:1;fill:#ffffff;fill-rule:evenodd;stroke:none"
       id="196"
       transform="matrix(1.25,0,0,1.25,305,5)"
       d="M 18.422,13 13.4357,18.5006 10.8556,15.9868 6.500101,20.5001 23.9571,20.48582 Z" />
    <circle
       r="2.75"
       style="opacity:1;fill:#ffffff;stroke:none"
       id="197"
       cx="10.92"
       cy="10.96"
       transform="matrix(1.25,0,0,1.25,305,5)" />
    <text
       x="305"
       y="48.75"
       id="198"
       style="font-size:13px;font-family:'Microsoft Sans Serif';opacity:1;fill:#000000;stroke:none"
       clip-path="url(#200_text_clipper)">
      <tspan
         id="202"
         dy="9.75pt">SaveImage</tspan>
    </text>
    <circle
       r="15"
       id="204"
       cx="15"
       cy="15"
       transform="matrix(1.25,0,0,1.25,205,5)"
       style="opacity:1;fill:#eec04b;stroke:none" />
    <path
       inkscape:connector-curvature="0"
       style="opacity:1;fill:#ffffff;fill-rule:evenodd;stroke:none"
       id="205"
       transform="matrix(1.25,0,0,1.25,205,5)"
       d="m 12.246,6.0137 v 0.00586 c -0.18794,7e-4 -0.35129,0.020875 -0.47852,0.046875 -0.89879,0.286301 -0.87117,0.86794 -1.8906,1.6191 -1.013501,0.578801 -1.5235,0.13438 -2.2617,0.73438 -0.73673,0.5956 -0.22226,1.962596 -0.53125,2.228496 -0.30671,0.5316 -1.2584,1.0063 -1.4316,1.6777 -0.14317,0.8587 0.38958,1.4709 0.36914,2.207 0.0614,0.6133 -0.6102,0.96178 -0.51367,1.459 0.28922,0.8121 0.84658,1.3001 1.1094,1.5254 0.046151,0.032 0.082828,0.08099 0.097656,0.08399 0.075857,0.1905 0.14373,0.38495 0.24023,0.56445 -0.00548,-0.026 -0.00651,-0.05213 -0.011719,-0.07813 0.054861,0.2176 0.11171,0.43619 0.189449,0.65039 1.5503,3.3608 5.681304,5.9479 10.209004,5.3789 2.1992,-0.2694 5.4826,-1.7854 6.8242,-5.3789 -0.94558,0.8485 -2.6345,1.586 -3.3887,1.6426 2.5527,-1.2757 3.9298,-3.4434 3.54299,-6.4062 -0.52877,1.2588 -1.2269,2.2267 -2.0996,2.8906 1.8538,-2.8897 1.5362,-4.3839 0.16407,-6.0254 0.98137,2.699 -0.28759,5.6945 -3.0527,7.8242 1.1203,0.1214 2.18449,-0.14787 3.1699,-0.95117 -1.4888,1.6607 -3.3523,2.4955 -5.4883,2.7227 1.0199,0.867 2.0045,1.259 2.9453,1.0918 -2.6144,0.7215 -4.8042,-0.07306 -7.4688,-2.7266 -0.13948,0.7143 0.61496,1.8268 1.3926,2.5371 -4.509502,-1.955 -4.906603,-8.042 0.58594,-9.5449 0.0033,0 0.0065,9e-4 0.0098,0 3.2713,1.9138 7.3868,1.7879 7.5723,0.55078 0.45807,-1.4829 -2.0857,-4.538497 -5.8887,-5.335897 -0.70028,-0.1367 -1.3698,-0.190479 -2.0078,-0.17188 0.01278,0 0.0243,2.39e-4 0.03711,-0.00977 -0.6074,-0.6489 -1.3815,-0.8145 -1.9453,-0.8125 z m 4.93169,3.033178 c 0.54604,0 1.0449,0.49697 1.0449,1.043002 0,0.5461 -0.49888,1.043 -1.0449,1.043 -0.54604,0 -1.043,-0.49687 -1.043,-1.043 5e-5,-0.546001 0.49693,-1.043102 1.043,-1.043002 z" />
    <text
       x="205"
       y="48.75"
       id="206"
       style="font-size:13px;font-family:'Microsoft Sans Serif';opacity:1;fill:#000000;stroke:none"
       clip-path="url(#208_text_clipper)">
      <tspan
         id="210"
         dy="9.75pt">Sample</tspan>
    </text>
    <circle
       r="15"
       id="212"
       cx="15"
       cy="15"
       transform="matrix(1.25,0,0,1.25,105,5)"
       style="opacity:1;fill:#449adf;stroke:none" />
    <path
       inkscape:connector-curvature="0"
       style="opacity:1;fill:#ffffff;fill-rule:evenodd;stroke:none"
       id="213"
       transform="matrix(1.25,0,0,1.25,105,5)"
       d="M 18.422,13 13.4357,18.5006 10.8556,15.9868 6.500101,20.5001 23.9571,20.48582 Z" />
    <circle
       r="2.75"
       style="opacity:1;fill:#ffffff;stroke:none"
       id="214"
       cx="10.92"
       cy="10.96"
       transform="matrix(1.25,0,0,1.25,105,5)" />
    <text
       x="105"
       y="48.75"
       id="215"
       style="font-size:13px;font-family:'Microsoft Sans Serif';opacity:1;fill:#000000;stroke:none"
       clip-path="url(#217_text_clipper)">
      <tspan
         id="219"
         dy="9.75pt">Grayscale</tspan>
    </text>
    <path
       inkscape:connector-curvature="0"
       style="opacity:1;fill:none;stroke:#a9a9a9;stroke-width:2;stroke-linecap:butt;stroke-linejoin:miter;stroke-miterlimit:9"
       id="221"
       transform="matrix(1.25,0,0,1.25,105,105)"
       d="m 31.179,5.2 c 3.8195,5.8918 3.8024,13.482 -0.04348,19.357" />
    <circle
       r="15"
       style="opacity:1;fill:#5bb27e;stroke:none"
       id="222"
       cx="15"
       cy="15"
       transform="matrix(1.25,0,0,1.25,105,105)" />
    <path
       inkscape:connector-curvature="0"
       style="opacity:1;fill:#ffffff;fill-rule:evenodd;stroke:none"
       id="223"
       transform="matrix(1.25,0,0,1.25,105,105)"
       d="M 8.5404,18.526 C 8.154759,18.14036 8.426559,17.3734 8.7512,17.0487 9.0693,16.7306 9.8857,16.65478 10.3397,17.03595 l 2.1904,1.7693 0.29084,-9.141104 c 0,-0.358289 0.60377,-0.924269 1.2316,-0.924269 0.74617,0 1.3151,0.576219 1.3151,0.95549 l 0.19096,5.347903 4.5059,1.703 c 0.18583,0.06373 0.43094,0.24909 0.43068,0.47598 l 0.0029,3.8276 -1.3849,2.3297 v 1.138 h -5.881 v -1.138 z" />
    <path
       inkscape:connector-curvature="0"
       id="224"
       transform="matrix(1.25,0,0,1.25,105,105)"
       style="opacity:1;fill:none;stroke:#ffffff;stroke-width:2;stroke-linecap:butt;stroke-linejoin:miter;stroke-miterlimit:9"
       d="m 10.482,12.156 c -1.418399,-2.2682 0.09104,-5.5872 2.7329,-6.0086 2.6015,-0.62394 5.2683,1.8624 4.8283,4.5011 l -0.06627,0.37741" />
    <text
       x="105"
       y="148.75"
       id="225"
       style="font-size:13px;font-family:'Microsoft Sans Serif';opacity:1;fill:#000000;stroke:none"
       clip-path="url(#227_text_clipper)">
      <tspan
         id="229"
         dy="9.75pt">KeyDown</tspan>
    </text>
    <path
       inkscape:connector-curvature="0"
       style="opacity:1;fill:none;stroke:#a9a9a9;stroke-width:2;stroke-linecap:butt;stroke-linejoin:miter;stroke-miterlimit:9"
       id="231"
       transform="matrix(1.25,0,0,1.25,5,5)"
       d="m 31.179,5.2 c 3.8195,5.8918 3.8024,13.482 -0.04348,19.357" />
    <circle
       r="15"
       style="opacity:1;fill:#5bb27e;stroke:none"
       id="232"
       cx="15"
       cy="15"
       transform="matrix(1.25,0,0,1.25,5,5)" />
    <path
       inkscape:connector-curvature="0"
       style="opacity:1;fill:#ffffff;fill-rule:evenodd;stroke:none"
       id="233"
       transform="matrix(1.25,0,0,1.25,5,5)"
       d="m 23.75,9.1 -4.1913,2.4211 v 6.8726 l 4.1913,2.421 z" />
    <path
       inkscape:connector-curvature="0"
       style="opacity:1;fill:#ffffff;fill-rule:evenodd;stroke:none"
       id="234"
       transform="matrix(1.25,0,0,1.25,5,5)"
       d="m 8.6927,9.2 h 7.0267 c 1.4706,0 2.6545,1.2337 2.6545,2.7661 v 5.8573 c 0,1.5324 -1.1839,2.7659 -2.6545,2.7659 H 8.692701 c -1.4706,0 -2.6545,-1.2335 -2.6545,-2.7659 v -5.8573 c 0,-1.5324 1.1839,-2.766101 2.6545,-2.766101 z" />
    <text
       x="5"
       y="48.75"
       id="235"
       style="font-size:13px;font-family:'Microsoft Sans Serif';opacity:1;fill:#000000;stroke:none"
       clip-path="url(#237_text_clipper)">
      <tspan
         id="239"
         dy="9.75pt">Camera</tspan>
    </text>
    <text
       x="5"
       y="63.459999"
       id="241"
       style="font-size:13px;font-family:'Microsoft Sans Serif';opacity:1;fill:#000000;stroke:none"
       clip-path="url(#243_text_clipper)">
      <tspan
         id="245"
         dy="9.75pt">Capture</tspan>
    </text>
  </g>
  <defs
     id="clips_hatches_and_gradients">
    <clipPath
       id="200_text_clipper">
      <rect
         id="201"
         width="72.059998"
         height="16.34"
         x="305"
         y="48.75" />
    </clipPath>
    <clipPath
       id="208_text_clipper">
      <rect
         id="209"
         width="49.810001"
         height="16.34"
         x="205"
         y="48.75" />
    </clipPath>
    <clipPath
       id="217_text_clipper">
      <rect
         id="218"
         width="64.690002"
         height="16.34"
         x="105"
         y="48.75" />
    </clipPath>
    <clipPath
       id="227_text_clipper">
      <rect
         id="228"
         width="61.630001"
         height="16.34"
         x="105"
         y="148.75" />
    </clipPath>
    <clipPath
       id="237_text_clipper">
      <rect
         id="238"
         width="51.959999"
         height="32.68"
         x="5"
         y="48.75" />
    </clipPath>
    <clipPath
       id="243_text_clipper">
      <rect
         id="244"
         width="51.959999"
         height="32.68"
         x="5"
         y="63.459999" />
    </clipPath>
  </defs>
</svg>

<?xml version="1.0" standalone="yes"?><!DOCTYPE svg PUBLIC "-//W3C//DTD SVG 1.1//EN" "http://www.w3.org/Graphics/SVG/1.1/DTD/svg11.dtd"[
<!ENTITY E10 'matrix(1.00 0.00 0.00 1.00 0.00 0.00 ) '><!ENTITY E3 'stroke:rgb(169,169,169);fill:none;stroke-linecap:butt;stroke-miterlimit:9;opacity:1;stroke-width:2;stroke-linejoin:miter;'><!ENTITY E20 'stroke:none;opacity:1;fill:rgb(91,178,126);'><!ENTITY E1 'stroke:rgb(169,169,169);fill:none;stroke-linecap:butt;stroke-miterlimit:9;opacity:1;stroke-width:1;stroke-linejoin:miter;'><!ENTITY E25 'matrix(1.00 0.00 0.00 1.00 4.00 4.00 ) '><!ENTITY E8 'stroke:none;opacity:1;fill:rgb(255,255,255);'><!ENTITY E11 'matrix(1.00 0.00 0.00 1.00 164.00 4.00 ) '><!ENTITY E19 'matrix(1.00 0.00 0.00 1.00 84.00 84.00 ) '><!ENTITY E4 'matrix(1.00 0.00 0.00 1.00 244.00 4.00 ) '><!ENTITY E6 'M 18.422 13 13.4357 18.5006 10.8556 15.9868 6.500101 20.5001 23.9571 20.48582 z '><!ENTITY E15 'matrix(1.00 0.00 0.00 1.00 84.00 4.00 ) '><!ENTITY E7 'stroke:none;fill-rule:evenodd;opacity:1;fill:rgb(255,255,255);'><!ENTITY E18 'M 31.179 5.2 C 34.9985 11.0918 34.9814 18.682 31.13552 24.557 '>
]><svg width="305.9762" height="132.8252" id="SvgGdi_output" xmlns="http://www.w3.org/2000/svg" xmlns:xlink="http://www.w3.org/1999/xlink"><rect id="background" height="100.00%" style="fill:rgb(255,255,255);" width="100.00%" y="0.00" x="0.00" /><g style="shape-rendering:auto;" id="root_group"><line y1="19.00" style="&E1;" id="53" x2="240.00" y2="19.00" x1="198.00" /><line y1="19.00" style="&E1;" id="54" x2="160.00" y2="19.00" x1="118.00" /><line y1="99.00" style="&E1;" id="55" x2="160.00" y2="19.00" x1="118.00" /><line y1="19.00" style="&E1;" id="56" x2="80.00" y2="19.00" x1="38.00" /><path style="&E3;" transform="&E4;" id="57" d="M 10.158 33.2 C 3.4054 31.7591 -1.861 26.4692 -3.271 19.71 " /><ellipse id="58" cy="15.00" cx="15.00" transform="&E4;" rx="15.00" ry="15.00" style="stroke:none;opacity:1;fill:rgb(155,91,179);" /><path d="&E6;" style="&E7;" transform="&E4;" id="59" /><ellipse id="60" cy="10.96" cx="10.92" transform="&E4;" rx="2.75" ry="2.75" style="&E8;" /><text id="61" transform="&E10;" x="244.00px" y="39.00px" style="stroke:none;clip-path:url(#63_text_clipper);font-family:Microsoft Sans Serif;fill:rgb(0,0,0);font-size:8.25pt;opacity:1;"><tspan dy="8.25pt" id="65">SaveImage</tspan></text><ellipse id="67" cy="15.00" cx="15.00" transform="&E11;" rx="15.00" ry="15.00" style="stroke:none;opacity:1;fill:rgb(238,192,75);" /><path style="&E7;" transform="&E11;" id="68" d="M 12.246 6.0137 12.246 6.019559 C 12.05806 6.020259 11.89471 6.040434 11.76748 6.066434 10.86869 6.352735 10.89631 6.934374 9.87688 7.685534 8.863379 8.264335 8.35338 7.819914 7.61518 8.419914 6.87845 9.015514 7.39292 10.38251 7.08393 10.64841 6.77722 11.18001 5.82553 11.65471 5.65233 12.32611 5.50916 13.18481 6.04191 13.79701 6.02147 14.53311 6.08287 15.14641 5.41127 15.49489 5.5078 15.99211 5.79702 16.80421 6.35438 17.29221 6.6172 17.51751 6.663351 17.54951 6.700028 17.5985 6.714856 17.6015 6.790713 17.792 6.858586 17.98645 6.955086 18.16595 6.949606 18.13995 6.948576 18.11382 6.943367 18.08782 6.998228 18.30542 7.055077 18.52401 7.132816 18.73821 8.683116 22.09901 12.81412 24.68611 17.34182 24.11711 19.54102 23.84771 22.82442 22.33171 24.16602 18.73821 23.22044 19.58671 21.53152 20.32421 20.77732 20.38081 23.33002 19.10511 24.70712 16.93741 24.32031 13.97461 23.79154 15.23341 23.09341 16.20131 22.22071 16.86521 24.07451 13.97551 23.75691 12.48131 22.38478 10.83981 23.36615 13.53881 22.09719 16.53431 19.33208 18.66401 20.45238 18.78541 21.51657 18.51614 22.50198 17.71284 21.01318 19.37354 19.14968 20.20834 17.01368 20.43554 18.03358 21.30254 19.01818 21.69454 19.95898 21.52734 17.34458 22.24884 15.15478 21.45428 12.49018 18.80074 12.3507 19.51504 13.10514 20.62754 13.88278 21.33784 9.373278 19.38284 8.976177 13.29584 14.46872 11.79294 14.47202 11.79294 14.47518 11.79384 14.47848 11.79294 17.74978 13.70674 21.86528 13.58084 22.05078 12.34372 22.50885 10.86082 19.96508 7.805223 16.16208 7.007823 15.4618 6.871123 14.79228 6.817344 14.15428 6.835943 14.16706 6.835943 14.17858 6.836182 14.19139 6.826178 13.58399 6.177278 12.80989 6.011678 12.24609 6.013678 z M 17.17769 9.046878 C 17.72373 9.046878 18.22259 9.543848 18.22259 10.08988 18.22259 10.63598 17.72371 11.13288 17.17769 11.13288 16.63165 11.13288 16.13469 10.63601 16.13469 10.08988 16.13474 9.543879 16.63162 9.046778 17.17769 9.046878 z " /><text id="69" transform="&E10;" x="164.00px" y="39.00px" style="stroke:none;clip-path:url(#71_text_clipper);font-family:Microsoft Sans Serif;fill:rgb(0,0,0);font-size:8.25pt;opacity:1;"><tspan dy="8.25pt" id="73">Sample</tspan></text><ellipse id="75" cy="15.00" cx="15.00" transform="&E15;" rx="15.00" ry="15.00" style="stroke:none;opacity:1;fill:rgb(68,154,223);" /><path d="&E6;" style="&E7;" transform="&E15;" id="76" /><ellipse id="77" cy="10.96" cx="10.92" transform="&E15;" rx="2.75" ry="2.75" style="&E8;" /><text id="78" transform="&E10;" x="84.00px" y="39.00px" style="stroke:none;clip-path:url(#80_text_clipper);font-family:Microsoft Sans Serif;fill:rgb(0,0,0);font-size:8.25pt;opacity:1;"><tspan dy="8.25pt" id="82">Grayscale</tspan></text><path d="&E18;" style="&E3;" transform="&E19;" id="84" /><ellipse id="85" cy="15.00" cx="15.00" transform="&E19;" rx="15.00" ry="15.00" style="&E20;" /><path style="&E7;" transform="&E19;" id="86" d="M 8.5404 18.526 C 8.154759 18.14036 8.426559 17.3734 8.7512 17.0487 9.0693 16.7306 9.8857 16.65478 10.3397 17.03595 L 12.5301 18.80525 12.82094 9.664146 C 12.82094 9.305857 13.42471 8.739877 14.05254 8.739877 14.79871 8.739877 15.36764 9.316096 15.36764 9.695367 L 15.5586 15.04327 20.0645 16.74627 C 20.25033 16.81 20.49544 16.99536 20.49518 17.22225 L 20.49808 21.04985 19.11318 23.37955 19.11318 24.51755 13.23218 24.51755 13.23218 23.37955 z " /><path transform="&E19;" id="87" d="M 10.482 12.156 C 9.063601 9.8878 10.57304 6.5688 13.2149 6.1474 15.8164 5.52346 18.4832 8.0098 18.0432 10.6485 L 17.97693 11.02591 " style="stroke:rgb(255,255,255);fill:none;stroke-linecap:butt;stroke-miterlimit:9;opacity:1;stroke-width:2;stroke-linejoin:miter;" /><text id="88" transform="&E10;" x="84.00px" y="119.00px" style="stroke:none;clip-path:url(#90_text_clipper);font-family:Microsoft Sans Serif;fill:rgb(0,0,0);font-size:8.25pt;opacity:1;"><tspan dy="8.25pt" id="92">KeyDown</tspan></text><path d="&E18;" style="&E3;" transform="&E25;" id="94" /><ellipse id="95" cy="15.00" cx="15.00" transform="&E25;" rx="15.00" ry="15.00" style="&E20;" /><path style="&E7;" transform="&E25;" id="96" d="M 23.75 9.1 19.5587 11.5211 19.5587 18.3937 23.75 20.8147 z " /><path style="&E7;" transform="&E25;" id="97" d="M 8.6927 9.2 15.7194 9.2 C 17.19 9.2 18.3739 10.4337 18.3739 11.9661 L 18.3739 17.8234 C 18.3739 19.3558 17.19 20.5893 15.7194 20.5893 L 8.692701 20.5893 C 7.222101 20.5893 6.038201 19.3558 6.038201 17.8234 L 6.038201 11.9661 C 6.038201 10.4337 7.222101 9.199999 8.692701 9.199999 z " /><text id="98" transform="&E10;" x="4.00px" y="39.00px" style="stroke:none;clip-path:url(#100_text_clipper);font-family:Microsoft Sans Serif;fill:rgb(0,0,0);font-size:8.25pt;opacity:1;"><tspan dy="8.25pt" id="102">Camera</tspan></text><text id="104" transform="&E10;" x="4.00px" y="51.45px" style="stroke:none;clip-path:url(#106_text_clipper);font-family:Microsoft Sans Serif;fill:rgb(0,0,0);font-size:8.25pt;opacity:1;"><tspan dy="8.25pt" id="108">Capture</tspan></text></g><defs id="clips_hatches_and_gradients"><clipPath id="63_text_clipper"><rect x="244.00" y="39.00" width="60.98" height="13.83" id="64" /></clipPath><clipPath id="71_text_clipper"><rect x="164.00" y="39.00" width="42.15" height="13.83" id="72" /></clipPath><clipPath id="80_text_clipper"><rect x="84.00" y="39.00" width="54.74" height="13.83" id="81" /></clipPath><clipPath id="90_text_clipper"><rect x="84.00" y="119.00" width="52.15" height="13.83" id="91" /></clipPath><clipPath id="100_text_clipper"><rect x="4.00" y="39.00" width="43.97" height="27.65" id="101" /></clipPath><clipPath id="106_text_clipper"><rect x="4.00" y="51.45" width="43.97" height="27.65" id="107" /></clipPath></defs></svg>
